X: 2
T: Cronin's
T: The Belles Of Tipperary
M: 4/4
L: 1/8
R: reel
K: Gmaj
~G3A Bd~d2|gabg aged|egdg ege^c|dBGA BAAB|
~G3A Bd~d2|gabg aged|egdg egbg|1 aged egg2:|2 aged egge||
|:~d3e dB~B2|cBAc BGGd|egdg ege^c|dBGA BAAB|
~d3e dB~B2|cBAc BGGd|egdg egbg|1 aged egge:|2 aged egg2||
